Newaita-dark/actions/16/view-calendar.svg

<svg height="16" viewBox="0 0 16 16" width="16" xmlns="http://www.w3.org/2000/svg"><g fill="#e0e0e0"><path d="m2.644531 1.449219c-.730469 0-1.320312.589843-1.320312 1.320312v10.585938c0 .734375.589843 1.324219 1.320312 1.324219h10.585938c.734375 0 1.324219-.589844 1.324219-1.324219v-10.585938c0-.730469-.589844-1.320312-1.324219-1.320312zm.664063 1.320312h9.261718c.363282 0 .660157.296875.660157.664063v9.261718c0 .363282-.296875.660157-.660157.660157h-9.261718c-.367188 0-.664063-.296875-.664063-.660157v-9.261718c0-.367188.296875-.664063.664063-.664063zm0 0"/><path d="m11.246094 3.433594c.363281 0 .660156.296875.660156.660156 0 .367188-.296875.660156-.660156.660156-.367188 0-.660156-.292968-.660156-.660156 0-.363281.292968-.660156.660156-.660156zm0 0"/><path d="m1.984375 5.417969h11.90625v.660156h-11.90625zm0 0"/><path d="m4.132812 7.402344h.664063c.183594 0 .328125.148437.328125.332031v.660156c0 .183594-.144531.332031-.328125.332031h-.664063c-.179687 0-.328124-.148437-.328124-.332031v-.660156c0-.183594.148437-.332031.328124-.332031zm0 0"/><path d="m6.449219 7.402344h.664062c.179688 0 .328125.148437.328125.332031v.660156c0 .183594-.148437.332031-.328125.332031h-.664062c-.183594 0-.332031-.148437-.332031-.332031v-.660156c0-.183594.148437-.332031.332031-.332031zm0 0"/><path d="m8.765625 7.402344h.660156c.183594 0 .332031.148437.332031.332031v.660156c0 .183594-.148437.332031-.332031.332031h-.660156c-.183594 0-.332031-.148437-.332031-.332031v-.660156c0-.183594.148437-.332031.332031-.332031zm0 0"/><path d="m11.082031 7.402344h.660157c.183593 0 .332031.148437.332031.332031v.660156c0 .183594-.148438.332031-.332031.332031h-.660157c-.183593 0-.332031-.148437-.332031-.332031v-.660156c0-.183594.148438-.332031.332031-.332031zm0 0"/><path d="m4.132812 9.71875h.664063c.183594 0 .328125.144531.328125.328125v.664063c0 .179687-.144531.328124-.328125.328124h-.664063c-.179687 0-.328124-.148437-.328124-.328124v-.664063c0-.183594.148437-.328125.328124-.328125zm0 0"/><path d="m6.449219 9.71875h.664062c.179688 0 .328125.144531.328125.328125v.664063c0 .179687-.148437.328124-.328125.328124h-.664062c-.183594 0-.332031-.148437-.332031-.328124v-.664063c0-.183594.148437-.328125.332031-.328125zm0 0"/><path d="m8.765625 9.71875h.660156c.183594 0 .332031.144531.332031.328125v.664063c0 .179687-.148437.328124-.332031.328124h-.660156c-.183594 0-.332031-.148437-.332031-.328124v-.664063c0-.183594.148437-.328125.332031-.328125zm0 0"/><path d="m11.082031 9.71875h.660157c.183593 0 .332031.144531.332031.328125v.664063c0 .179687-.148438.328124-.332031.328124h-.660157c-.183593 0-.332031-.148437-.332031-.328124v-.664063c0-.183594.148438-.328125.332031-.328125zm0 0"/><path d="m4.628906 3.433594c.367188 0 .664063.296875.664063.660156 0 .367188-.296875.660156-.664063.660156-.363281 0-.660156-.292968-.660156-.660156 0-.363281.296875-.660156.660156-.660156zm0 0"/></g></svg>

<svg xmlns="http://www.w3.org/2000/svg" xmlns:xlink="http://www.w3.org/1999/xlink" width="16px" height="16px" viewBox="0 0 16 16" version="1.1">
<g id="surface1">
     <defs>
  <style id="current-color-scheme" type="text/css">
   .ColorScheme-Text { color:#eeeeee; } .ColorScheme-Highlight { color:#424242; }
  </style>
 </defs>
<path style="fill:currentColor" class="ColorScheme-Text" d="M 2.644531 1.449219 C 1.914062 1.449219 1.324219 2.039062 1.324219 2.769531 L 1.324219 13.355469 C 1.324219 14.089844 1.914062 14.679688 2.644531 14.679688 L 13.230469 14.679688 C 13.964844 14.679688 14.554688 14.089844 14.554688 13.355469 L 14.554688 2.769531 C 14.554688 2.039062 13.964844 1.449219 13.230469 1.449219 Z M 3.308594 2.769531 L 12.570312 2.769531 C 12.933594 2.769531 13.230469 3.066406 13.230469 3.433594 L 13.230469 12.695312 C 13.230469 13.058594 12.933594 13.355469 12.570312 13.355469 L 3.308594 13.355469 C 2.941406 13.355469 2.644531 13.058594 2.644531 12.695312 L 2.644531 3.433594 C 2.644531 3.066406 2.941406 2.769531 3.308594 2.769531 Z M 3.308594 2.769531 "/>
     <defs>
  <style id="current-color-scheme" type="text/css">
   .ColorScheme-Text { color:#eeeeee; } .ColorScheme-Highlight { color:#424242; }
  </style>
 </defs>
<path style="fill:currentColor" class="ColorScheme-Text" d="M 11.246094 3.433594 C 11.609375 3.433594 11.90625 3.730469 11.90625 4.09375 C 11.90625 4.460938 11.609375 4.753906 11.246094 4.753906 C 10.878906 4.753906 10.585938 4.460938 10.585938 4.09375 C 10.585938 3.730469 10.878906 3.433594 11.246094 3.433594 Z M 11.246094 3.433594 "/>
     <defs>
  <style id="current-color-scheme" type="text/css">
   .ColorScheme-Text { color:#eeeeee; } .ColorScheme-Highlight { color:#424242; }
  </style>
 </defs>
<path style="fill:currentColor" class="ColorScheme-Text" d="M 1.984375 5.417969 L 13.890625 5.417969 L 13.890625 6.078125 L 1.984375 6.078125 Z M 1.984375 5.417969 "/>
     <defs>
  <style id="current-color-scheme" type="text/css">
   .ColorScheme-Text { color:#eeeeee; } .ColorScheme-Highlight { color:#424242; }
  </style>
 </defs>
<path style="fill:currentColor" class="ColorScheme-Text" d="M 4.132812 7.402344 L 4.796875 7.402344 C 4.980469 7.402344 5.125 7.550781 5.125 7.734375 L 5.125 8.394531 C 5.125 8.578125 4.980469 8.726562 4.796875 8.726562 L 4.132812 8.726562 C 3.953125 8.726562 3.804688 8.578125 3.804688 8.394531 L 3.804688 7.734375 C 3.804688 7.550781 3.953125 7.402344 4.132812 7.402344 Z M 4.132812 7.402344 "/>
     <defs>
  <style id="current-color-scheme" type="text/css">
   .ColorScheme-Text { color:#eeeeee; } .ColorScheme-Highlight { color:#424242; }
  </style>
 </defs>
<path style="fill:currentColor" class="ColorScheme-Text" d="M 6.449219 7.402344 L 7.113281 7.402344 C 7.292969 7.402344 7.441406 7.550781 7.441406 7.734375 L 7.441406 8.394531 C 7.441406 8.578125 7.292969 8.726562 7.113281 8.726562 L 6.449219 8.726562 C 6.265625 8.726562 6.117188 8.578125 6.117188 8.394531 L 6.117188 7.734375 C 6.117188 7.550781 6.265625 7.402344 6.449219 7.402344 Z M 6.449219 7.402344 "/>
     <defs>
  <style id="current-color-scheme" type="text/css">
   .ColorScheme-Text { color:#eeeeee; } .ColorScheme-Highlight { color:#424242; }
  </style>
 </defs>
<path style="fill:currentColor" class="ColorScheme-Text" d="M 8.765625 7.402344 L 9.425781 7.402344 C 9.609375 7.402344 9.757812 7.550781 9.757812 7.734375 L 9.757812 8.394531 C 9.757812 8.578125 9.609375 8.726562 9.425781 8.726562 L 8.765625 8.726562 C 8.582031 8.726562 8.433594 8.578125 8.433594 8.394531 L 8.433594 7.734375 C 8.433594 7.550781 8.582031 7.402344 8.765625 7.402344 Z M 8.765625 7.402344 "/>
     <defs>
  <style id="current-color-scheme" type="text/css">
   .ColorScheme-Text { color:#eeeeee; } .ColorScheme-Highlight { color:#424242; }
  </style>
 </defs>
<path style="fill:currentColor" class="ColorScheme-Text" d="M 11.082031 7.402344 L 11.742188 7.402344 C 11.925781 7.402344 12.074219 7.550781 12.074219 7.734375 L 12.074219 8.394531 C 12.074219 8.578125 11.925781 8.726562 11.742188 8.726562 L 11.082031 8.726562 C 10.898438 8.726562 10.75 8.578125 10.75 8.394531 L 10.75 7.734375 C 10.75 7.550781 10.898438 7.402344 11.082031 7.402344 Z M 11.082031 7.402344 "/>
     <defs>
  <style id="current-color-scheme" type="text/css">
   .ColorScheme-Text { color:#eeeeee; } .ColorScheme-Highlight { color:#424242; }
  </style>
 </defs>
<path style="fill:currentColor" class="ColorScheme-Text" d="M 4.132812 9.71875 L 4.796875 9.71875 C 4.980469 9.71875 5.125 9.863281 5.125 10.046875 L 5.125 10.710938 C 5.125 10.890625 4.980469 11.039062 4.796875 11.039062 L 4.132812 11.039062 C 3.953125 11.039062 3.804688 10.890625 3.804688 10.710938 L 3.804688 10.046875 C 3.804688 9.863281 3.953125 9.71875 4.132812 9.71875 Z M 4.132812 9.71875 "/>
     <defs>
  <style id="current-color-scheme" type="text/css">
   .ColorScheme-Text { color:#eeeeee; } .ColorScheme-Highlight { color:#424242; }
  </style>
 </defs>
<path style="fill:currentColor" class="ColorScheme-Text" d="M 6.449219 9.71875 L 7.113281 9.71875 C 7.292969 9.71875 7.441406 9.863281 7.441406 10.046875 L 7.441406 10.710938 C 7.441406 10.890625 7.292969 11.039062 7.113281 11.039062 L 6.449219 11.039062 C 6.265625 11.039062 6.117188 10.890625 6.117188 10.710938 L 6.117188 10.046875 C 6.117188 9.863281 6.265625 9.71875 6.449219 9.71875 Z M 6.449219 9.71875 "/>
     <defs>
  <style id="current-color-scheme" type="text/css">
   .ColorScheme-Text { color:#eeeeee; } .ColorScheme-Highlight { color:#424242; }
  </style>
 </defs>
<path style="fill:currentColor" class="ColorScheme-Text" d="M 8.765625 9.71875 L 9.425781 9.71875 C 9.609375 9.71875 9.757812 9.863281 9.757812 10.046875 L 9.757812 10.710938 C 9.757812 10.890625 9.609375 11.039062 9.425781 11.039062 L 8.765625 11.039062 C 8.582031 11.039062 8.433594 10.890625 8.433594 10.710938 L 8.433594 10.046875 C 8.433594 9.863281 8.582031 9.71875 8.765625 9.71875 Z M 8.765625 9.71875 "/>
     <defs>
  <style id="current-color-scheme" type="text/css">
   .ColorScheme-Text { color:#eeeeee; } .ColorScheme-Highlight { color:#424242; }
  </style>
 </defs>
<path style="fill:currentColor" class="ColorScheme-Text" d="M 11.082031 9.71875 L 11.742188 9.71875 C 11.925781 9.71875 12.074219 9.863281 12.074219 10.046875 L 12.074219 10.710938 C 12.074219 10.890625 11.925781 11.039062 11.742188 11.039062 L 11.082031 11.039062 C 10.898438 11.039062 10.75 10.890625 10.75 10.710938 L 10.75 10.046875 C 10.75 9.863281 10.898438 9.71875 11.082031 9.71875 Z M 11.082031 9.71875 "/>
     <defs>
  <style id="current-color-scheme" type="text/css">
   .ColorScheme-Text { color:#eeeeee; } .ColorScheme-Highlight { color:#424242; }
  </style>
 </defs>
<path style="fill:currentColor" class="ColorScheme-Text" d="M 4.628906 3.433594 C 4.996094 3.433594 5.292969 3.730469 5.292969 4.09375 C 5.292969 4.460938 4.996094 4.753906 4.628906 4.753906 C 4.265625 4.753906 3.96875 4.460938 3.96875 4.09375 C 3.96875 3.730469 4.265625 3.433594 4.628906 3.433594 Z M 4.628906 3.433594 "/>
</g>
</svg>
